X: 957
T: Hadi Canım Çekinme
C: Selahattin İçli
O: Turkey
F: http://compmusic.upf.edu/node/140
N: mahur--sarki--nimsofyan--hadi_canim--selahattin_icli
N: makam= mahur
N: form= sarki
N: usul= nimsofyan = 2/4
M: 2/4
L: 1/16
K: C ^9/8f   
Q: 1/4=81
%%MIDI tuningsystem comma53
zc'c'c' c'bag  | ab3 g4  | z2a2 a2g2  | \
w:   |   |   | 
zf2e f2g2  | zc'c'c' c'bag  | 
w:   |   | 
ab3 g4  | z2a2 a2g2  | zf2e f2g2  | dggg dggg  | \
w:   |   |   |   | 
dggg dggg  | 
w:   | 
z2bb bg3  | ab3 g4  | a2z2 a2g2  | za2g b2b2  | \
w:  Ha di  ca nım   |  çe kin me   |  yok  yok tur   |  kul  se vin ce    | 
z2bb bg3  | 
w:  Ha di  ca nım   | 
ab3 g4  | a2z2 a2g2  | zf2e f2g2  | z2ga a2a2  | \
w:  çe kin me   |  yok  yok tur   |  kul  se vin ce    |  Ba na  bir  hâl    | 
a2aa c'4  | 
w:  *  o lu yor   | 
c'b2a aa3  | d'd'3 d'4  | z2d'c' b2g2  | \
w:  *  sen  ya nı ma   |  ge lin ce    |  Ba na  bir  hâl   | 
g2ab g4  | a2z2 agf2  | 
w:  *  o lu yor   |  sen  ya nı ma   | 
ef3 g4  | z2dd dB3  | cd3 B4  | B2z2 B2G2  | \
w:  ge lin ce    |  Ha di  ca nım   |  çe kin me   |  yok  yok tur   | 
zA2G B2B2  | z2dd dB3  | 
w:  kul  se vin ce    |  Ha di  ca nım   | 
cd3 B4  | B2z2 B2G2  | zA2G A2G2  | zccc cBAG  | \
w:  çe kin me   |  yok  yok tur   |  kul  se vin ce    |  SAZ  | 
AB3 G4  | 
w:   | 
z2A2 A2G2  | zF2E F2G2  | zccc cBAG  | AB3 G4  | \
w:   |   |  SAZ  |   | 
z2A2 A2G2  | 
w:   | 
zF2E F2G2  | GBBB GBBB  | GBBB GBBB  | 
w:   |   |   | 
BB3 BB3  | c2c2 c2z2  | dd3 d2d2  | ee3 e2z2  | \
w:  Ne ler  ne ler   |  ol maz  ki   |  gö nül  in saf   |  e din ce    | 
ff3 ff3  | g2g2 g2z2  | 
w:  Ne ler  ne ler   |  ol maz  ki   | 
bb3 b2g2  | ab3 g4  | z2ga a2a2  | a2aa c'4  | \
w:  gö nül  in saf   |  e din ce    |  Ba na  bir  hâl    |  *  o lu yor   | 
c'b2a aa3  | 
w:  *  sen  ya nı ma   | 
d'd'3 d'4  | z2d'c' b2g2  | g2ab g4  | a2z2 agf2  | \
w:  ge lin ce    |  Ba na  bir  hâl   |  *  o lu yor   |  sen  ya nı ma   | 
ef3 g4  | z2dd dB3  | 
w:  ge lin ce    |  Ha di  ca nım   | 
cd3 B4  | B2z2 B2G2  | zA2G B2B2  | z2dd dB3  | \
w:  çe kin me   |  yok  yok tur   |  kul  se vin ce    |  Ha di  ca nım   | 
cd3 B4  | B2z2 B2G2  | 
w:  çe kin me   |  yok  yok tur   | 
zA2G A2G2  | zc'c'c' c'bag  | ab3 g4  | \
w:  kul  se vin ce    |  SAZ  |   | 
z2a2 a2g2  | zf2e f2g2  | 
w:   |   | 
zc'c'c' c'bag  | ab3 g4  | z2a2 a2g2  | \
w:  SAZ  |   |   | 
zf2e f2g2  | gfed gfed  | 
w:   |   | 
gfed gfed  | z2gg gd3  | ee3 d4  | z2ed e2d2  | 
w:   |  Ha di  ca nım   |  çe kin me   |  di le  ben den   | 
e2e2 d2z2  | z2gg gd3  | ee3 d4  | z2ed e2d2  | \
w:  gön lün ce    |  Ha di  ca nım   |  çe kin me   |  di le  ben den   | 
e2f2 g2z2  | 
w:  gön lün ce    | 
g2=f2 ed3  | cB3 A2z2  | AA3 A3G  | dd3 d2z2  | \
w:  Fer man  o lur   |  her  ar zun   |  yü zün  böy le   |  gü lün ce    | 
g2=f2 ed3  | cB3 A2z2  | 
w:  Fer man  o lur   |  her  ar zun   | 
AA3 A3c  | BA3 G4  | z2dd dB3  | cd3 B4  | \
w:  yü zün  böy le   |  gü lün ce    |  Ha di  ca nım   |  çe kin me   | 
B2z2 B2G2  | zA2G B2B2  | 
w:  yok  yok tur   |  kul  se vin ce    | 
z2dd dB3  | cd3 B4  | B2z2 B2G2  | zA2G A2G2  | \
w:  Ha di  ca nım   |  çe kin me   |  yok  yok tur   |  kul  se vin ce    | 
zccc cBAG  | 
w:  SAZ  | 
AB3 G4  | z2A2 A2G2  | zF2E F2G2  | zccc cBAG  | \
w:   |   |   |  SAZ  | 
AB3 G4  | 
w:   | 
z2A2 A2G2  | zF2E F2G2  | GBBB GBBB  | GBBB GBBB  | 
w:   |   |   |   | 
BB3 BB3  | zc2c c2z2  | dd3 dd3  | ee3 e2z2  | \
w:  Ka der  bi le   |  hoş gö rür   |  se ven  bo yun   |  e ğin ce    | 
ff3 ff3  | 
w:  Ka der  bi le   | 
zg2g g2z2  | bb3 bg3  | ab3 g4  | z2ga a2a2  | \
w:  hoş gö rür   |  se ven  bo yun   |  e ğin ce    |  Sa na  bir  hâl   | 
aa2a c'4  | 
w:  *  ol ma lı   | 
c'b2a aa3  | d'd'3 d'4  | z2d'c' b2g2  | \
w:  *  ben  ya nı na   |  ge lin ce    |  Sa na  bir  hâl   | 
ga2b g4  | a2z2 agf2  | 
w:  *  ol ma lı   |  ben  ya nı na   | 
ef3 g4  | z2dd dB3  | cd3 B4  | B2z2 B2G2  | \
w:  ge lin ce    |  Ha di  ca nım   |  çe kin me   |  yok  yok tur   | 
zA2G B2B2  | z2dd dB3  | 
w:  kul  se vin ce    |  Ha di  ca nım   | 
cd3 B4  | B2z2 B2G2  | zA2G A2G2  | z2dd dB3  | \
w:  çe kin me   |  yok  yok tur   |  kul  se vin ce    |  Ha di  ca nım   | 
cd3 B4  | B2z2 B2G2  | 
w:  çe kin me   |  yok  yok tur   | 
zA2G B2B2  | z2dd dB3  | cd3 B4  | B2z2 B2G2  | \
w:  kul  se vin ce    |  Ha di  ca nım   |  çe kin me   |  yok  yok tur   | 
zA2G A2G2  | 
w:  kul  se vin ce    | 
|


